shared/images/iconfont/kb-iconfont-settings-24.svg

<?xml version="1.0" encoding="UTF-8"?>
<svg width="24px" height="24px" viewBox="0 0 24 24" version="1.1" xmlns="http://www.w3.org/2000/svg" xmlns:xlink="http://www.w3.org/1999/xlink">
    <!-- Generator: sketchtool 41.2 (35397) - http://www.bohemiancoding.com/sketch -->
    <title>DCE4B620-3EB1-40A2-A9F7-F5D402F337EE</title>
    <desc>Created with sketchtool.</desc>
    <defs></defs>
    <g id="Icons" stroke="none" stroke-width="1" fill="none" fill-rule="evenodd">
        <g id="Style-guide---Desktop---Icons-2" transform="translate(-161.000000, -1138.000000)">
            <g id="kb-iconfont-nav-settings-24" transform="translate(161.000000, 1138.000000)">
                <rect id="icon-area" fill="#D8D8D8" opacity="0" x="0" y="0" width="24" height="24"></rect>
                <path d="M12,15.9375 C9.8125,15.9375 8.0625,14.1875 8.0625,12 C8.0625,9.8125 9.8125,8.0625 12,8.0625 C14.1875,8.0625 15.9375,9.8125 15.9375,12 C15.9375,14.1875 14.1875,15.9375 12,15.9375 M19.56,12 C19.56,11.5261154 19.50924,11.064 19.41924,10.6153846 L21,8.98846154 L19.2,6.01153846 L16.9608,6.52315385 C16.23684,5.91634615 15.393,5.44176923 14.46564,5.13403846 L13.8,3 L10.2,3 L9.53436,5.13403846 C8.607,5.44176923 7.76316,5.91634615 7.0392,6.52315385 L4.8,6.01153846 L3,8.98846154 L4.58076,10.6153846 C4.49076,11.064 4.44,11.5261154 4.44,12 C4.44,12.4738846 4.49076,12.936 4.58076,13.3846154 L3,15.0115385 L4.8,17.9884615 L7.0392,17.4768462 C7.76316,18.0836538 8.607,18.5582308 9.53436,18.8659615 L10.2,21 L13.8,21 L14.46564,18.8659615 C15.393,18.5582308 16.23684,18.0836538 16.9608,17.4768462 L19.2,17.9884615 L21,15.0115385 L19.41924,13.3846154 C19.50924,12.936 19.56,12.4738846 19.56,12" id="Page-1" fill="#000000"></path>
            </g>
        </g>
    </g>
</svg>

<svg xmlns="http://www.w3.org/2000/svg" width="24" height="24" viewBox="0 0 24 24">
    <path fill="#000" fill-rule="evenodd" d="M12 15.938A3.921 3.921 0 0 1 8.062 12 3.921 3.921 0 0 1 12 8.062 3.921 3.921 0 0 1 15.938 12 3.921 3.921 0 0 1 12 15.938M19.56 12c0-.474-.05-.936-.14-1.385L21 8.988l-1.8-2.976-2.24.511a7.613 7.613 0 0 0-2.494-1.389L13.8 3h-3.6l-.666 2.134a7.613 7.613 0 0 0-2.495 1.39L4.8 6.011 3 8.988l1.58 1.627c-.09.449-.14.911-.14 1.385s.05.936.14 1.385L3 15.012l1.8 2.976 2.24-.511a7.613 7.613 0 0 0 2.494 1.389L10.2 21h3.6l.666-2.134a7.613 7.613 0 0 0 2.495-1.39l2.239.512 1.8-2.976-1.58-1.627c.09-.449.14-.911.14-1.385"/>
</svg>
